Dominus_Dark_Funeral/scalable/apps/libreoffice-draw.svg

<svg xmlns="http://www.w3.org/2000/svg" xmlns:xlink="http://www.w3.org/1999/xlink" width="48" height="48" viewBox="0 0 12.7 12.7"><defs><linearGradient id="a"><stop offset="0" stop-color="#1a1a1a"/><stop offset="1" stop-color="#1a1a1a" stop-opacity="0"/></linearGradient><linearGradient xlink:href="#a" id="d" gradientUnits="userSpaceOnUse" x1="1.24" y1="285.09" x2="11.68" y2="294.23" gradientTransform="translate(0 -284.3)"/><radialGradient xlink:href="#b" id="c" cx="9.68" cy="2.68" fx="9.68" fy="2.68" r="5.35" gradientTransform="matrix(.06616 1.06853 -1.16839 .07235 12.18 -8.48)" gradientUnits="userSpaceOnUse"/><linearGradient id="b"><stop offset="0" stop-color="#e9ddaf"/><stop offset="1" stop-color="#d3bc5f"/></linearGradient></defs><path d="M6.36.1c-1.54 0-2.78.28-3.7.86a3.67 3.67 0 0 0-1.65 3.26c0 1.91 1.54 4.47 2 5.2.55.85 1.14 1.61 1.66 2.16.68.7 1.2 1.03 1.69 1.03.48 0 1-.33 1.69-1.03A15.2 15.2 0 0 0 9.7 9.43c.47-.74 2-3.3 2-5.21 0-1.42-.57-2.54-1.65-3.25A6.75 6.75 0 0 0 6.35.1z" fill="url(#c)"/><path d="M7.25 12.25c.24-.17.5-.37.79-.67a15.2 15.2 0 0 0 1.65-2.15c.23-.37.74-1.2 1.18-2.17.22-.48.43-1 .58-1.52.15-.52.25-1.04.25-1.52 0-.13-.03-.24-.04-.36L10.2 2.4l-.39.64-.97.1-1.9-1.9-.49.65.05 3.26-.62.7-.68.67-1 .6-.4-.39-1.02 1.06z" opacity=".5" fill="url(#d)"/><g opacity=".7"><g transform="translate(10.76 -284.14)" fill="#1a1a1a"><path d="M-4.23 286.3h.25v8.64h-.25z"/><ellipse ry=".66" rx=".64" cy="294.75" cx="-4.11"/><ellipse ry=".66" rx=".64" cy="286.02" cx="-4.11"/><path d="M-4.49 289.46c0 .22.17.4.38.4a.4.4 0 0 0 .39-.4.4.4 0 0 0-.39-.4.4.4 0 0 0-.38.4zm-3.31 1.57h1.03v1.06H-7.8zm6.39-4.33h1.03v1.06h-1.03z"/></g><path d="M3.06 7.44c3.47.13 3.72-4.37 6.93-4.24" fill="none" stroke="#1a1a1a" stroke-width=".26"/></g><path d="M1.04 3.9c0 .1-.04.2-.04.32 0 1.91 1.54 4.47 2.01 5.2.54.85 1.13 1.61 1.65 2.16.68.7 1.21 1.03 1.69 1.03s1.01-.33 1.69-1.03a15.2 15.2 0 0 0 1.65-2.15c.47-.74 2-3.3 2-5.21 0-.11-.02-.21-.03-.32a5.5 5.5 0 0 1-.21 1.3c-.15.53-.36 1.05-.58 1.53-.44.97-.95 1.8-1.18 2.17a15.2 15.2 0 0 1-1.65 2.15 4.9 4.9 0 0 1-.92.78c-.28.17-.53.25-.77.25s-.5-.08-.77-.25a4.76 4.76 0 0 1-.92-.78A14.41 14.41 0 0 1 3.01 8.9a19.2 19.2 0 0 1-1.18-2.17c-.22-.48-.43-1-.58-1.52a5.66 5.66 0 0 1-.21-1.31z" opacity=".5"/><path d="M2.89 7.28c3.46.13 3.72-4.37 6.92-4.24" fill="none" stroke="#b3b3b3" stroke-width=".26"/><path d="M6.36 2h.24v8.64h-.24z" fill="#f9f9f9"/><ellipse ry=".66" rx=".64" cy="10.45" cx="6.48" fill="#536c67"/><ellipse ry=".66" rx=".64" cy="1.72" cx="6.48" fill="#536c67"/><path d="M6.1 5.16c0 .22.17.4.38.4a.4.4 0 0 0 .38-.4.4.4 0 0 0-.38-.4.4.4 0 0 0-.39.4z" fill="#d35f5f"/><path d="M2.78 6.73h1.03v1.06H2.78z" fill="#6c5d53"/><path d="M9.17 2.4h1.03v1.06H9.17z" fill="#917c6f"/></svg>

<?xml version="1.0" encoding="UTF-8" standalone="no"?>
<svg
   xmlns:dc="http://purl.org/dc/elements/1.1/"
   xmlns:cc="http://creativecommons.org/ns#"
   xmlns:rdf="http://www.w3.org/1999/02/22-rdf-syntax-ns#"
   xmlns:svg="http://www.w3.org/2000/svg"
   xmlns="http://www.w3.org/2000/svg"
   xmlns:xlink="http://www.w3.org/1999/xlink"
   xmlns:sodipodi="http://sodipodi.sourceforge.net/DTD/sodipodi-0.dtd"
   xmlns:inkscape="http://www.inkscape.org/namespaces/inkscape"
   width="48"
   height="48"
   viewBox="0 0 12.7 12.7"
   version="1.1"
   id="svg50"
   sodipodi:docname="libreoffice-draw.svg"
   inkscape:version="0.92.4 (5da689c313, 2019-01-14)">
  <metadata
     id="metadata54">
    <rdf:RDF>
      <cc:Work
         rdf:about="">
        <dc:format>image/svg+xml</dc:format>
        <dc:type
           rdf:resource="http://purl.org/dc/dcmitype/StillImage" />
        <dc:title></dc:title>
      </cc:Work>
    </rdf:RDF>
  </metadata>
  <sodipodi:namedview
     pagecolor="#ffffff"
     bordercolor="#666666"
     borderopacity="1"
     objecttolerance="10"
     gridtolerance="10"
     guidetolerance="10"
     inkscape:pageopacity="0"
     inkscape:pageshadow="2"
     inkscape:window-width="1112"
     inkscape:window-height="480"
     id="namedview52"
     showgrid="false"
     inkscape:zoom="4.9166667"
     inkscape:cx="2.1355932"
     inkscape:cy="24"
     inkscape:window-x="0"
     inkscape:window-y="25"
     inkscape:window-maximized="0"
     inkscape:current-layer="svg50" />
  <defs
     id="defs14">
    <linearGradient
       id="a">
      <stop
         offset="0"
         stop-color="#1a1a1a"
         id="stop2" />
      <stop
         offset="1"
         stop-color="#1a1a1a"
         stop-opacity="0"
         id="stop4" />
    </linearGradient>
    <linearGradient
       xlink:href="#a"
       id="d"
       gradientUnits="userSpaceOnUse"
       x1="1.24"
       y1="285.09"
       x2="11.68"
       y2="294.23"
       gradientTransform="translate(0,-284.3)" />
    <radialGradient
       xlink:href="#b"
       id="c"
       cx="9.68"
       cy="2.68"
       fx="9.68"
       fy="2.68"
       r="5.35"
       gradientTransform="matrix(0.06616,1.06853,-1.16839,0.07235,12.18,-8.48)"
       gradientUnits="userSpaceOnUse" />
    <linearGradient
       id="b">
      <stop
         offset="0"
         stop-color="#e9ddaf"
         id="stop9" />
      <stop
         offset="1"
         stop-color="#d3bc5f"
         id="stop11" />
    </linearGradient>
  </defs>
  <path
     d="M 6.36,0.1 C 4.82,0.1 3.58,0.38 2.66,0.96 A 3.67,3.67 0 0 0 1.01,4.22 c 0,1.91 1.54,4.47 2,5.2 0.55,0.85 1.14,1.61 1.66,2.16 0.68,0.7 1.2,1.03 1.69,1.03 0.48,0 1,-0.33 1.69,-1.03 A 15.2,15.2 0 0 0 9.7,9.43 c 0.47,-0.74 2,-3.3 2,-5.21 0,-1.42 -0.57,-2.54 -1.65,-3.25 A 6.75,6.75 0 0 0 6.35,0.1 Z"
     id="path16"
     style="fill:url(#c)"
     inkscape:connector-curvature="0" />
  <path
     d="m 7.25,12.25 c 0.24,-0.17 0.5,-0.37 0.79,-0.67 A 15.2,15.2 0 0 0 9.69,9.43 C 9.92,9.06 10.43,8.23 10.87,7.26 11.09,6.78 11.3,6.26 11.45,5.74 11.6,5.22 11.7,4.7 11.7,4.22 11.7,4.09 11.67,3.98 11.66,3.86 L 10.2,2.4 9.81,3.04 8.84,3.14 6.94,1.24 6.45,1.89 6.5,5.15 5.88,5.85 5.2,6.52 4.2,7.12 3.8,6.73 2.78,7.79 Z"
     id="path18"
     style="opacity:0.5;fill:url(#d)"
     inkscape:connector-curvature="0" />
  <g
     id="g32"
     style="opacity:0.7">
    <g
       transform="translate(10.76,-284.14)"
       id="g28"
       style="fill:#1a1a1a">
      <path
         d="m -4.23,286.3 h 0.25 v 8.64 h -0.25 z"
         id="path20"
         inkscape:connector-curvature="0" />
      <ellipse
         ry="0.66000003"
         rx="0.63999999"
         cy="294.75"
         cx="-4.1100001"
         id="ellipse22" />
      <ellipse
         ry="0.66000003"
         rx="0.63999999"
         cy="286.01999"
         cx="-4.1100001"
         id="ellipse24" />
      <path
         d="m -4.49,289.46 c 0,0.22 0.17,0.4 0.38,0.4 a 0.4,0.4 0 0 0 0.39,-0.4 0.4,0.4 0 0 0 -0.39,-0.4 0.4,0.4 0 0 0 -0.38,0.4 z m -3.31,1.57 h 1.03 v 1.06 H -7.8 Z m 6.39,-4.33 h 1.03 v 1.06 h -1.03 z"
         id="path26"
         inkscape:connector-curvature="0" />
    </g>
    <path
       d="M 3.06,7.44 C 6.53,7.57 6.78,3.07 9.99,3.2"
       id="path30"
       inkscape:connector-curvature="0"
       style="fill:none;stroke:#1a1a1a;stroke-width:0.25999999" />
  </g>
  <path
     d="M 1.04,3.9 C 1.04,4 1,4.1 1,4.22 c 0,1.91 1.54,4.47 2.01,5.2 0.54,0.85 1.13,1.61 1.65,2.16 0.68,0.7 1.21,1.03 1.69,1.03 0.48,0 1.01,-0.33 1.69,-1.03 A 15.2,15.2 0 0 0 9.69,9.43 c 0.47,-0.74 2,-3.3 2,-5.21 0,-0.11 -0.02,-0.21 -0.03,-0.32 A 5.5,5.5 0 0 1 11.45,5.2 C 11.3,5.73 11.09,6.25 10.87,6.73 10.43,7.7 9.92,8.53 9.69,8.9 A 15.2,15.2 0 0 1 8.04,11.05 4.9,4.9 0 0 1 7.12,11.83 C 6.84,12 6.59,12.08 6.35,12.08 6.11,12.08 5.85,12 5.58,11.83 A 4.76,4.76 0 0 1 4.66,11.05 14.41,14.41 0 0 1 3.01,8.9 19.2,19.2 0 0 1 1.83,6.73 C 1.61,6.25 1.4,5.73 1.25,5.21 A 5.66,5.66 0 0 1 1.04,3.9 Z"
     id="path34"
     inkscape:connector-curvature="0"
     style="opacity:0.5" />
  <path
     d="M 2.89,7.28 C 6.35,7.41 6.61,2.91 9.81,3.04"
     id="path36"
     inkscape:connector-curvature="0"
     style="fill:none;stroke:#b3b3b3;stroke-width:0.25999999" />
  <path
     d="M 6.36,2 H 6.6 v 8.64 H 6.36 Z"
     id="path38"
     inkscape:connector-curvature="0"
     style="fill:#f9f9f9" />
  <ellipse
     ry="0.66000003"
     rx="0.63999999"
     cy="10.45"
     cx="6.48"
     id="ellipse40"
     style="fill:#536c67" />
  <ellipse
     ry="0.66000003"
     rx="0.63999999"
     cy="1.72"
     cx="6.48"
     id="ellipse42"
     style="fill:#536c67" />
  <path
     d="m 6.1,5.16 c 0,0.22 0.17,0.4 0.38,0.4 A 0.4,0.4 0 0 0 6.86,5.16 0.4,0.4 0 0 0 6.48,4.76 0.4,0.4 0 0 0 6.09,5.16 Z"
     id="path44"
     inkscape:connector-curvature="0"
     style="fill:#d35f5f" />
  <path
     d="M 2.78,6.73 H 3.81 V 7.79 H 2.78 Z"
     id="path46"
     inkscape:connector-curvature="0"
     style="fill:#6c5d53" />
  <path
     d="M 9.17,2.4 H 10.2 V 3.46 H 9.17 Z"
     id="path48"
     inkscape:connector-curvature="0"
     style="fill:#917c6f" />
</svg>
